X: 58
P: Schottisch fr\aan Idre I
O: efter Storbo-J\"ons
B: Musik till Svenska Folkdanser, Ingvar Norman, 1971, p.39
M: 4/4
L: 1/8
K: Dm
|: "Dm"a{b}a ge f2{gf}ed | "A7"^c2 A2 A4 |1,3 A=B ^cd e2 e2 | "Dm"d^c df "(A7)"a4 \
                                        :|2,4 A=B ^cd ef ec | "Dm"d2 d2 d4 :|
|: "Dm"f2 fg f2{gf}ed | "A7"e2 {e}a2 {b}a2 ge |1,3 "Dm"f2 fg f2{gf}ed | "A7"{d}e2 e^c A4 \
                                             :|2,4 "Dm"f2 df "A7"e2 A^c | "Dm"d2 d2 d4 :|
|: "Dm"d2 d2 {e}d^c ed | "A7"^c2 A2 Ab ag |1,3 "Dm"f2 fg f2 af | "A7"{g}f2 e^c A4 \
                                         :|2,4 "Dm"f2 df "A7"e2 A^c | "Dm"d2 d2 d4 :|
